icon_installer/data/icons/scalable/actions/show-tab-symbolic.svg

<?xml version="1.0" encoding="UTF-8"?>
<svg height="16px" viewBox="0 0 16 16" width="16px" xmlns="http://www.w3.org/2000/svg">
    <path d="m 3.992188 3 s -0.707032 -0.011719 -1.445313 0.355469 c -0.738281 0.371093 -1.554687 1.3125 -1.554687 2.644531 v 7 h -1.0000005 l -0.0039063 2 h 0.0039063 l 3.0000005 0.011719 v -0.011719 h 13 v -2 h 0.011718 v -7.308594 c 0 -1.429687 -1.171875 -2.632812 -2.625 -2.648437 l -2.378906 -0.019531 s 1 0.824218 1 1.964843 l 1.046875 0.042969 c 0.539063 0.023438 0.941406 0.496094 0.941406 0.976562 v 6.992188 h -2.988281 v -7 s 0.011719 -0.710938 -0.355469 -1.449219 c -0.371093 -0.738281 -1.3125 -1.550781 -2.644531 -1.550781 z m 0 0" fill="#222222"/>
</svg>

<svg xmlns="http://www.w3.org/2000/svg" width="16" height="16"><path fill="#222" d="M3.992 3s-.707-.012-1.445.355C1.809 3.727.992 4.668.992 6v7h-1l-.004 2h.004l3 .012V15h13v-2h.012V5.691a2.666 2.666 0 0 0-2.625-2.648L11 3.023s1 .825 1 1.965l1.047.043c.539.024.941.496.941.977V13H11V6s.012-.71-.355-1.45C10.273 3.813 9.332 3 8 3zm0 0"/></svg>
